src/dist/img/mdDefault.svg

<?xml version="1.0" encoding="UTF-8"?>
<svg width="120px" height="120px" viewBox="0 0 120 120" version="1.1" xmlns="http://www.w3.org/2000/svg" xmlns:xlink="http://www.w3.org/1999/xlink">
    <!-- Generator: Sketch 47.1 (45422) - http://www.bohemiancoding.com/sketch -->
    <title>mdDefault</title>
    <desc>Created with Sketch.</desc>
    <defs></defs>
    <g id="Page-1" stroke="none" stroke-width="1" fill="none" fill-rule="evenodd">
        <g id="mdDefault" stroke="#FFFFFF" stroke-width="1.7" fill="#4A4A4A" fill-rule="nonzero">
            <g id="003-online-shop" transform="translate(12.000000, 25.000000)">
                <path d="M70.4386225,0 L6.94997807,0 C3.11770944,0.000182012604 0,3.09257616 0,6.89372739 L0,46.6736742 C0,47.4062749 0.598585532,48 1.33718356,48 C2.07559809,48 2.67436712,47.4062749 2.67436712,46.6736742 L2.67436712,6.89372739 C2.67436712,4.55522945 4.59251996,2.6526517 6.95016157,2.6526517 L70.4386225,2.6526517 C71.177037,2.6526517 71.8235386,2.05892658 71.8235386,1.32632585 C71.8235386,0.593725115 71.177037,0 70.4386225,0 Z" id="Shape"></path>
                <path d="M87.0465703,0 L81.0559062,0 C80.317125,0 79.7180586,0.589569773 79.7180586,1.31704321 C79.7180586,2.04451664 80.3169414,2.63408641 81.0559062,2.63408641 L87.0465703,2.63408641 C89.4053828,2.63408641 91.3244883,4.52334847 91.3244883,6.84547982 L91.3244883,58.6274906 C91.3244883,60.9496219 89.4053828,62.838884 87.0465703,62.838884 L6.95342969,62.838884 C4.59461719,62.838884 2.67551172,60.9496219 2.67551172,58.6274906 L2.67551172,55.5655956 C2.67551172,54.8383029 2.07662891,54.2485524 1.33766406,54.2485524 C0.598699219,54.2485524 0,54.8381221 0,55.5655956 L0,58.6274906 C0,62.4020385 3.11925781,65.4727897 6.95342969,65.4727897 L35.262668,65.4727897 L34.1416445,70.1288004 L29.9724141,70.1288004 C27.5967109,70.1288004 25.6640195,72.0314371 25.6640195,74.3701964 L25.6640195,76.7836008 C25.6640195,78.0057562 26.6739687,79 27.9154297,79 L66.0845703,79 C67.3260312,79 68.3359805,78.0057562 68.3359805,76.7836008 L68.3359805,74.3701964 C68.3359805,72.0314371 66.4032891,70.1288004 64.0275859,70.1288004 L59.8583555,70.1288004 L58.737332,65.4727897 L87.0465703,65.4727897 C90.8807422,65.4727897 94,62.4020385 94,58.6274906 L94,6.84529908 C94,3.07075121 90.8807422,0 87.0465703,0 Z M38.0123516,65.4727897 L55.9876484,65.4727897 L57.1086719,70.1288004 L36.8913281,70.1288004 L38.0123516,65.4727897 Z M64.0275859,72.762706 C64.9279297,72.762706 65.6604687,73.4838536 65.6604687,74.3701964 L65.6604687,76.3660943 L28.3395312,76.3660943 L28.3395312,74.3701964 C28.3395312,73.4838536 29.0720703,72.762706 29.9724141,72.762706 L64.0275859,72.762706 Z" id="Shape"></path>
                <path d="M86.2475535,5 C85.567886,5 84.703386,5 83.6540536,5 C78.815054,5 53.8478516,5 8.75244652,5 C7.23479065,5 6,6.23350903 6,7.7495897 L6,54.2504103 C6,55.766491 7.23479065,57 8.75244652,57 L86.2475535,57 C87.7652093,57 89,55.766491 89,54.2504103 L89,7.7495897 C89,6.23332471 87.7652093,5 86.2475535,5 Z M86.3110275,54.250226 C86.3110275,54.2852479 86.2826118,54.3136341 86.2475535,54.3136341 L8.75244652,54.3136341 C8.71738821,54.3136341 8.68897253,54.2852479 8.68897253,54.250226 L8.68897253,7.7495897 C8.68897253,7.71456777 8.71738821,7.68618158 8.75244652,7.68618158 L86.2475535,7.68618158 C86.2826118,7.68618158 86.3110275,7.7147521 86.3110275,7.7495897 L86.3110275,54.250226 Z" id="Shape"></path>
            </g>
        </g>
    </g>
</svg>

<?xml version="1.0" encoding="utf-8"?>
<!-- Generator: Adobe Illustrator 21.1.0, SVG Export Plug-In . SVG Version: 6.00 Build 0)  -->
<svg version="1.1" id="Layer_1" xmlns="http://www.w3.org/2000/svg" xmlns:xlink="http://www.w3.org/1999/xlink" x="0px" y="0px"
	 viewBox="0 0 94 79" style="enable-background:new 0 0 94 79;" xml:space="preserve">
<title>mdDefault</title>
<desc>Created with Sketch.</desc>
<g id="Page-1">
	<g id="mdDefault">
		<path id="Shape" d="M70.4,0H6.9C3.1,0,0,3.1,0,6.9v39.8C0,47.4,0.6,48,1.3,48c0.7,0,1.3-0.6,1.3-1.3V6.9c0-2.3,1.9-4.2,4.3-4.2
			h63.5c0.7,0,1.4-0.6,1.4-1.3S71.2,0,70.4,0z"/>
		<path id="Shape_1_" d="M87,0h-6c-0.7,0-1.3,0.6-1.3,1.3s0.6,1.3,1.3,1.3h6c2.4,0,4.3,1.9,4.3,4.2v51.8c0,2.3-1.9,4.2-4.3,4.2H7
			c-2.4,0-4.3-1.9-4.3-4.2v-3.1c0-0.7-0.6-1.3-1.3-1.3S0,54.8,0,55.6v3.1c0,3.8,3.1,6.8,7,6.8h28.3l-1.1,4.7H30
			c-2.4,0-4.3,1.9-4.3,4.2v2.4c0,1.2,1,2.2,2.3,2.2h38.2c1.2,0,2.3-1,2.3-2.2v-2.4c0-2.3-1.9-4.2-4.3-4.2h-4.2l-1.1-4.7H87
			c3.8,0,7-3.1,7-6.8V6.8C94,3.1,90.9,0,87,0z M38,65.5h18l1.1,4.7H36.9L38,65.5z M64,72.8c0.9,0,1.6,0.7,1.6,1.6v2H28.3v-2
			c0-0.9,0.7-1.6,1.6-1.6H64z"/>
		<path id="Shape_2_" d="M86.2,5c-0.7,0-1.5,0-2.6,0C78.8,5,53.8,5,8.8,5C7.2,5,6,6.2,6,7.7v46.5C6,55.8,7.2,57,8.8,57h77.5
			c1.5,0,2.8-1.2,2.8-2.7V7.7C89,6.2,87.8,5,86.2,5z M86.3,54.3C86.3,54.3,86.3,54.3,86.3,54.3L8.8,54.3c0,0-0.1,0-0.1-0.1V7.7
			c0,0,0-0.1,0.1-0.1h77.5c0,0,0.1,0,0.1,0.1V54.3z"/>
	</g>
</g>
</svg>
